assets/icons/action/add_photo_video.svg

<?xml version="1.0"?><svg xmlns="http://www.w3.org/2000/svg" width="52" height="52" viewBox="0 0 52 52"><path fill="#fff" d="m26 20c-4.4 0-8 3.6-8 8s3.6 8 8 8 8-3.6 8-8-3.6-8-8-8z m20-6h-5.2c-1.4 0-2.6-0.7-3.4-1.8l-2.3-3.5c-0.7-1.7-2.4-2.7-4.2-2.7h-9.8c-1.8 0-3.5 1-4.3 2.7l-2.3 3.5c-0.7 1.1-2 1.8-3.4 1.8h-5.1c-2.2 0-4 1.8-4 4v24c0 2.2 1.8 4 4 4h40c2.2 0 4-1.8 4-4v-24c0-2.2-1.8-4-4-4z m-20 26c-6.6 0-12-5.4-12-12s5.4-12 12-12 12 5.4 12 12-5.4 12-12 12z"></path></svg>

<svg xmlns="http://www.w3.org/2000/svg" x="0px" y="0px"
	 width="52px" height="52px" viewBox="0 0 52 52" enable-background="new 0 0 52 52" xml:space="preserve">
<g>
	<path fill="#FFFFFF" d="M26,20c-4.4,0-8,3.6-8,8s3.6,8,8,8s8-3.6,8-8S30.4,20,26,20z M46,14h-5.2c-1.4,0-2.6-0.7-3.4-1.8l-2.3-3.5
		C34.4,7,32.7,6,30.9,6h-9.8c-1.8,0-3.5,1-4.3,2.7l-2.3,3.5c-0.7,1.1-2,1.8-3.4,1.8H6c-2.2,0-4,1.8-4,4v24c0,2.2,1.8,4,4,4h40
		c2.2,0,4-1.8,4-4V18C50,15.8,48.2,14,46,14z M26,40c-6.6,0-12-5.4-12-12s5.4-12,12-12s12,5.4,12,12S32.6,40,26,40z"/>
</g>
</svg>
